img/expanded-arrow.svg

<svg width="48" height="47" viewBox="0 0 48 47" fill="none" xmlns="http://www.w3.org/2000/svg">
<path d="M24 29.375L23.2929 30.0821L24 30.7892L24.7071 30.0821L24 29.375ZM11.5429 18.3321L23.2929 30.0821L24.7071 28.6679L12.9571 16.9179L11.5429 18.3321ZM24.7071 30.0821L36.4571 18.3321L35.0429 16.9179L23.2929 28.6679L24.7071 30.0821Z" fill="#212121"/>
</svg>

<svg width="48" height="47" fill="none" xmlns="http://www.w3.org/2000/svg"><path d="m24 29.375-.707.707.707.707.707-.707-.707-.707ZM11.543 18.332l11.75 11.75 1.414-1.414-11.75-11.75-1.414 1.414Zm13.164 11.75 11.75-11.75-1.414-1.414-11.75 11.75 1.414 1.414Z" fill="#212121"/></svg>
